public/library/codex-icon-dark.svg

<svg width="76" height="86" viewBox="0 0 76 86" fill="none" xmlns="http://www.w3.org/2000/svg">
<path d="M62.3047 52.9227L62.2831 53.6195C62.0605 60.7171 60.9542 66.6365 58.9858 71.2341C53.3466 73.6478 46.5723 74.8763 38.8497 74.8763C31.1272 74.8763 23.9578 73.5329 18.2324 70.8893C14.9063 64.1006 13.2181 54.4888 13.2181 42.3123C13.2181 30.1358 15.014 20.4234 18.5628 13.6348C24.044 11.2857 30.8614 10.1004 38.8426 10.1004C46.3137 10.1004 52.815 11.1707 58.1812 13.2899C59.8694 17.083 61.0116 21.9679 61.5863 27.8227L61.651 28.4692H75.099L74.7613 27.5138C72.3835 20.7395 67.0244 15.4451 59.2516 12.1765C55.4227 3.98698 48.749 0 38.8497 0C28.9505 0 22.0038 4.21686 17.5355 12.5285C5.89786 17.7295 0 27.7508 0 42.3195C0 56.8881 5.94096 66.5718 17.1764 71.9812C21.6662 80.6879 28.9577 85.0987 38.8497 85.0987C48.7418 85.0987 56.0836 80.8029 60.0706 72.326C68.2816 68.4899 73.6479 62.0892 75.6018 53.8063L75.8102 52.9227H62.3047Z" fill="#F9F9F9"/>
</svg>

<svg xmlns="http://www.w3.org/2000/svg" width="76" height="86" fill="none" viewBox="0 0 76 86"><path fill="#f9f9f9" d="m62.305 52.923-.022.697c-.223 7.097-1.329 13.017-3.297 17.614-5.64 2.414-12.414 3.642-20.136 3.642-7.723 0-14.892-1.343-20.618-3.987-3.326-6.788-5.014-16.4-5.014-28.577 0-12.176 1.796-21.889 5.345-28.677 5.481-2.35 12.298-3.535 20.28-3.535 7.47 0 13.972 1.07 19.338 3.19 1.688 3.793 2.83 8.678 3.405 14.533l.065.646h13.448l-.338-.955c-2.377-6.774-7.737-12.069-15.51-15.337C55.424 3.987 48.75 0 38.85 0c-9.9 0-16.846 4.217-21.315 12.529C5.898 17.729 0 27.75 0 42.319c0 14.57 5.941 24.253 17.176 29.662C21.666 80.688 28.958 85.1 38.85 85.1s17.234-4.296 21.22-12.773c8.212-3.836 13.578-10.237 15.532-18.52l.208-.883z"/></svg>
